svg/24/template--filled.svg

<svg width="24" height="24" viewBox="0 0 24 24" fill="currentColor" xmlns="http://www.w3.org/2000/svg"><path d="M13 3V21H5C3.89543 21 3 20.1046 3 19V5C3 3.89543 3.89543 3 5 3H13Z"/><path d="M14.5 3V9.5H21V5C21 3.89543 20.1046 3 19 3H14.5Z"/><path d="M21 11H14.5V21H19C20.1046 21 21 20.1046 21 19V11Z"/></svg>

<svg xmlns="http://www.w3.org/2000/svg" width="24" height="24" fill="currentColor" viewBox="0 0 24 24">
  <path d="M13 3v18H5a2 2 0 0 1-2-2V5a2 2 0 0 1 2-2h8Zm1.5 0v6.5H21V5a2 2 0 0 0-2-2h-4.5Zm6.5 8h-6.5v10H19a2 2 0 0 0 2-2v-8Z"/>
</svg>
